X:154
T:Rakish Paddy  (r)
B:NFID.072b
154rak_p
S:JD
L:1/8
M:C
R:reel % A-B-A
Q:360
K:D
ed|:=cded (3cdc Bd|AdGd ADDd|ddd^c d3e|fdeg fded|
[1 (3=cdc Bd (3cdc (3BcB|(3ABA Gd ADD2|DEFG Adde|=cAGd ADDB:|
[2 (3=cdc Bd cGBd|=cAG=F E=CB,C|(3DE=F EG FAdB|=cA (3GFE D3g||
efgb (3agf g2|gagf eB=ce|d2ad bdad|abag fddf|
efgb (3agf g2|gagf eB=ce|defg abag|1 fage dcd|2 faec dfed||

%%%

